resources/svg/git-merge-o.svg

<svg width="15" height="15" viewBox="0 0 15 15" fill="none" xmlns="http://www.w3.org/2000/svg">
<path d="M2.5 10.5C1.39543 10.5 0.5 11.3954 0.5 12.5C0.5 13.6046 1.39543 14.5 2.5 14.5C3.60457 14.5 4.5 13.6046 4.5 12.5C4.5 11.3954 3.60457 10.5 2.5 10.5ZM2.5 10.5V4.5M4.5 2.5C4.5 1.39543 3.60457 0.5 2.5 0.5C1.39543 0.5 0.5 1.39543 0.5 2.5C0.5 3.60457 1.39543 4.5 2.5 4.5M4.5 2.5C4.5 3.60457 3.60457 4.5 2.5 4.5M4.5 2.5H9.5C11.1569 2.5 12.5 3.84315 12.5 5.5V7.5M12.5 7.5C11.3954 7.5 10.5 8.39543 10.5 9.5C10.5 10.6046 11.3954 11.5 12.5 11.5C13.6046 11.5 14.5 10.6046 14.5 9.5C14.5 8.39543 13.6046 7.5 12.5 7.5Z" stroke="black"/>
</svg>

<svg viewBox="0 0 15 15" fill="none" xmlns="http://www.w3.org/2000/svg" fill="currentColor"><path d="M2.5 10.5a2 2 0 100 4 2 2 0 000-4zm0 0v-6m2-2a2 2 0 10-2 2m2-2a2 2 0 01-2 2m2-2h5a3 3 0 013 3v2m0 0a2 2 0 100 4 2 2 0 000-4z" stroke="currentColor"/></svg>
